X: 10077
T: Dicky's
R: jig
M: 6/8
K: Dmajor
|:dAf dAf|dAF FED|dAf dAf|dfA B2c|
def edB|BAF ABd|faf edB|AFA BAF:|
|:def ded|AF2 FED|def ded|AFA BAF|
def d2A|dg/f/e def|fge fdB|AFA B2F:|

